!!!OTL: Die Sonne ist verblichen
!!!ARE: Europa, Mitteleuropa, Deutschland
!!!SCT: A0116A
!!!YEM: Copyright 1995, estate of Helmut Schaffrath.
**kern
*ICvox
*Ivox
!! Mixed meters:  4/2; 6/2
*M6/2
*k[f#]
*G:
{2g
=1
2g
2dd
2ffn
2ee
=2
1dd
2a}
{2a
=3
1g
2a
2dd
=4
4dd
4cc
4b-
4a
2b-
2b-
=5
1.g}
{2g
=6
2g
2dd
2ffn
2ee
=7
1dd
2a}
{2a
=8
1g
2a
2dd
=9
4dd
4cc
4b-
4a
2b-
2b-
=10
1.g}
{2cc
=11
2cc
2cc
2cc
2b-
=12
1a
1g}
=13
{1b-
=14
1a
2fn
2g
=15
4g
4fn
4e
4d
2e
2e
=16
0d}
=17
{2r
2g
2g
2a
=18
2b-
2cc
1a
=19
1g}
{1dd
=20
1ffn
2ee
1dd
2cc}
=21
*M4/2
{2.dd
4cc
4b-
4a
[2b-
=22
2b-]
4a
4g
2fn}
{2fn
=23
2g
2b-
2a
2cc
=24
4dd
4b-
4a
4g
2a
2a
=25
1.g}
==
!!!AGN: Romanze, Ballade, Lied
!! Forster III 1549 No. 42.
!!!ONB: ESAC (Essen Associative Code) Database: ALTDEU
!!!AMT: irregular
!!!AIN: vox
!!!EED: Helmut Schaffrath
!!!EEV: 1.0
*-
